X:12
T:B012-  Amaryllis (told her swain)
S:via BBBM, form 'Dancing Master' 3rd ed, 1665
Q:1/4=120
L:1/4
M:C|
K:G
d3/2 c/2 BA/2G/2|ADG2|d3/2 c/2 B/2B/2A/2G/2|ADG2|\
d/2e/2d/2c/2 B A/2G/2|ADG2|d/2e/2d/2c/2 B/2A/2B/2G/2|ADG2|\
A3/2 B/2 cB|cde3/2 f/2|gfg/2a/2f|e2d2|\
g3/2 f/2ed|e/2d/2 cB3/2 c/2|d e/2d/2 c/2B/2 A|G4|]
